src/sym-tio-s.svg

<svg width="32" height="32" viewBox="0 0 32 32" fill="none" xmlns="http://www.w3.org/2000/svg">
<path d="M9.24525 0.0639648L2.78125 6.52797H8.02925C8.73325 3.96797 11.4852 0.543965 12.3172 0.0639648H9.24525Z" fill="black"/>
<path d="M15.4532 6.52797V0.0639648H13.9812C11.242 2.03516 9.68258 5.19463 9.24525 6.52797H15.4532Z" fill="black"/>
<path d="M16.7012 6.52797H22.9732C21.514 3.04636 19.1439 0.767965 18.1412 0.0639648H16.7012V6.52797Z" fill="black"/>
<path d="M24.1892 6.52797H29.2772L22.7492 0.0639648H19.8692C21.9428 1.95836 23.3892 4.60797 24.1892 6.52797Z" fill="black"/>
<path d="M22.8133 31.9999L29.2773 25.5359L24.0293 25.5359C23.3253 28.0959 20.5733 31.5199 19.7413 31.9999L22.8133 31.9999Z" fill="black"/>
<path d="M16.6053 25.5359L16.6053 31.9999L18.0773 31.9999C20.8165 30.0287 22.376 26.8692 22.8133 25.5359L16.6053 25.5359Z" fill="black"/>
<path d="M15.3573 25.5359L9.08535 25.5359C10.5445 29.0175 12.9147 31.2959 13.9173 31.9999L15.3573 31.9999L15.3573 25.5359Z" fill="black"/>
<path d="M7.86935 25.5359L2.78135 25.5359L9.30935 31.9999L12.1893 31.9999C10.1157 30.1055 8.66935 27.4559 7.86935 25.5359Z" fill="black"/>
<path d="M5.78678 22.0001H7.77078V12.0161H10.5068V10.2401H3.05078V12.0161H5.78678V22.0001Z" fill="black"/>
<path d="M12.7815 22.0001H19.2135V20.2241H16.9895V12.0161H19.2135V10.2401H12.7815V12.0161H15.0055V20.2241H12.7815V22.0001Z" fill="black"/>
<path d="M25.2163 22.1281C25.6003 22.1281 25.9789 22.0907 26.3523 22.0161C26.7256 21.9414 27.0776 21.8081 27.4083 21.6161C27.7389 21.4134 28.0216 21.1627 28.2563 20.8641C28.4909 20.5547 28.6509 20.2134 28.7363 19.8401C28.8323 19.4667 28.8803 19.0881 28.8803 18.7041V13.5361C28.8803 13.1521 28.8323 12.7734 28.7363 12.4001C28.6509 12.0267 28.4909 11.6907 28.2563 11.3921C28.0216 11.0827 27.7389 10.8321 27.4083 10.6401C27.0776 10.4374 26.7256 10.2987 26.3523 10.2241C25.9789 10.1494 25.6003 10.1121 25.2163 10.1121C24.8323 10.1121 24.4536 10.1494 24.0803 10.2241C23.7069 10.2987 23.3549 10.4374 23.0243 10.6401C22.6936 10.8321 22.4109 11.0827 22.1763 11.3921C21.9416 11.6907 21.7763 12.0267 21.6803 12.4001C21.5949 12.7734 21.5523 13.1521 21.5523 13.5361V18.7041C21.5523 19.0881 21.5949 19.4667 21.6803 19.8401C21.7763 20.2134 21.9416 20.5547 22.1763 20.8641C22.4109 21.1627 22.6936 21.4134 23.0243 21.6161C23.3549 21.8081 23.7069 21.9414 24.0803 22.0161C24.4536 22.0907 24.8323 22.1281 25.2163 22.1281ZM25.2163 20.3521C24.9923 20.3521 24.7683 20.3201 24.5443 20.2561C24.3309 20.1921 24.1389 20.0801 23.9683 19.9201C23.8083 19.7601 23.6909 19.5734 23.6163 19.3601C23.5523 19.1467 23.5203 18.9281 23.5203 18.7041V13.5361C23.5203 13.3121 23.5523 13.0934 23.6163 12.8801C23.6909 12.6561 23.8083 12.4694 23.9683 12.3201C24.1389 12.1601 24.3309 12.0481 24.5443 11.9841C24.7683 11.9201 24.9923 11.8881 25.2163 11.8881C25.4403 11.8881 25.6589 11.9201 25.8723 11.9841C26.0963 12.0481 26.2883 12.1601 26.4483 12.3201C26.6189 12.4694 26.7363 12.6561 26.8003 12.8801C26.8749 13.0934 26.9123 13.3121 26.9123 13.5361V18.7041C26.9123 18.9281 26.8749 19.1467 26.8003 19.3601C26.7363 19.5734 26.6189 19.7601 26.4483 19.9201C26.2883 20.0801 26.0963 20.1921 25.8723 20.2561C25.6589 20.3201 25.4403 20.3521 25.2163 20.3521Z" fill="black"/>
</svg>

<svg xmlns="http://www.w3.org/2000/svg" viewBox="0 0 32 32">
	<path
		d="M9.2.1L2.8 6.5H8c.7-2.6 3.5-6 4.3-6.5H9.2zm6.3 6.4V.1H14c-2.7 2-4.3 5.1-4.7 6.5h6.2zm1.2 0H23C21.5 3 19.2.7 18.2 0h-1.4v6.5zm7.5 0h5.1L22.8 0h-2.9c2 2 3.5 4.6 4.3 6.5zM22.8 32l6.5-6.5H24c-.7 2.6-3.5 6-4.3 6.5h3.1zm-6.2-6.5V32h1.5c2.7-2 4.3-5.1 4.7-6.5h-6.2zm-1.2 0H9.1c1.5 3.5 3.8 5.8 4.8 6.5h1.4v-6.5zm-7.5 0H2.8L9.3 32h2.9c-2.1-1.9-3.5-4.5-4.3-6.5zM5.8 22h2V12h2.7v-1.8H3.1V12h2.7v10zm7 0h6.4v-1.8H17V12h2.2v-1.8h-6.4V12H15v8.2h-2.2V22zm12.4.1c.4 0 .8 0 1.1-.1.4-.1.7-.2 1.1-.4.3-.2.6-.5.8-.8.2-.3.4-.7.5-1 .1-.4.1-.8.1-1.1v-5.2c0-.4 0-.8-.1-1.1-.1-.4-.2-.7-.5-1-.2-.3-.5-.6-.8-.8-.3-.2-.7-.3-1.1-.4-.4-.1-.8-.1-1.1-.1-.4 0-.8 0-1.1.1-.4.1-.7.2-1.1.4-.3.2-.6.4-.8.8-.2.3-.4.6-.5 1-.1.4-.1.8-.1 1.1v5.2c0 .4 0 .8.1 1.1.1.4.3.7.5 1 .2.3.5.5.8.8.3.2.7.3 1.1.4.4.1.7.1 1.1.1zm0-1.7c-.2 0-.4 0-.7-.1l-.6-.3c-.2-.2-.3-.3-.4-.6-.1-.2-.1-.4-.1-.7v-5.2c0-.2 0-.4.1-.7.1-.2.2-.4.4-.6.2-.2.4-.3.6-.3.2-.1.4-.1.7-.1.2 0 .4 0 .7.1l.6.3c.2.1.3.3.4.6.1.2.1.4.1.7v5.2c0 .2 0 .4-.1.7-.1.2-.2.4-.4.6-.2.2-.4.3-.6.3-.2 0-.5.1-.7.1z" />
</svg>
